X:1
T:Asaph, 11.11.11.11 D
T:Asaph, 11.11.11.11 D
T:George Edward Stubbs, 1889
T:Public Domain Courtesy of the Cyber Hymnal™
C:George Edward Stubbs, 1889
Z:Public Domain
Z:Courtesy of the Cyber Hymnal™
%%score ( 1 2 ) ( 3 4 )
L:1/8
Q:1/4=110
M:4/4
K:F
V:1 treble 
V:2 treble 
V:3 bass 
V:4 bass 
V:1
 [CA]2 [CA]2 [CA]2 [B,G]2 | [A,F]4 [B,D]4 | [A,C]2 [A,C]2 [B,D]2 [B,C]2 | [A,C]8 | %4
 [CAc]2 [CAc]2 [CAc]2 [CGB]2 | [CFA]4 [CG]4 | [CF]2 [CF]2 [=B,A]2 [B,G]2 | [CG]8 | %8
 [Ed]2 [Ed]2 [Ee]2 [Ed]2 | [Fd]4 [Fc]4 | [EB]2 [EB]2 [EA]2 [^CE]2 | [EG]4 [DF]4 | %12
 [Ff]2 [Ff]2 [Fe]2 [Fd]2 | ([Fc]2 [EB]2) A4 | [DA]2 [DG]2 [CF]2 [CE]2 | [CF]8 |] %16
V:2
 x8 | x8 | x8 | x8 | x8 | x8 | x8 | x8 | x8 | x8 | x8 | x8 | x8 | x4 (F2 _E2) | x8 | x8 |] %16
V:3
 F,2 F,2 [A,,F,]2 [C,E,]2 | [D,F,]4 [B,,F,]4 | [C,F,]2 [C,F,]2 [C,E,]2 [C,E,]2 | [F,,F,]8 | %4
 F,2 F,2 [A,,F,]2 [C,E,]2 | F,4 [E,G,]4 | [D,A,]2 [D,A,]2 [G,,F,]2 [G,,F,]2 | [C,E,]8 | %8
 [C,B,]2 [C,B,]2 [C,B,]2 [C,B,]2 | [C,A,]4 [C,A,]4 | [C,G,]2 [C,G,]2 [^C,A,]2 [A,,A,]2 | B,4 A,4 | %12
 [B,,D]2 [B,,D]2 [B,,C]2 [B,,B,]2 | C4 [F,,C]4 | [B,,C]2 [B,,B,]2 [C,A,]2 (G,B,) | [F,,F,A,]8 |] %16
V:4
 F,2 F,2 x4 | x8 | x8 | x8 | F,2 F,2 x4 | F,4 x4 | x8 | x8 | x8 | x8 | x8 | D,8 | x8 | %13
 (A,,2 G,,2) x4 | x6 C,2 | x8 |] %16

